<?xml version="1.0" encoding="UTF-8"?>
<map version="1.10" tiledversion="1.11.2" orientation="orthogonal" renderorder="right-down" width="24" height="24" tilewidth="32" tileheight="32" infinite="0" nextlayerid="3" nextobjectid="1">
 <tileset firstgid="1" source="tileset.tsx"/>
 <layer id="1" name="layer1" width="24" height="24">
  <data encoding="csv">
41,41,41,41,41,41,41,41,41,41,41,41,41,41,41,41,41,41,41,41,41,41,41,41,
41,41,41,41,41,41,41,41,41,41,41,41,41,41,41,41,41,41,41,41,41,41,41,41,
41,41,41,41,41,41,41,41,41,41,41,41,41,41,41,41,41,41,41,41,41,41,41,41,
41,41,41,41,41,41,41,41,41,41,41,41,41,41,41,41,41,41,41,41,41,41,41,41,
41,41,41,41,41,41,41,41,41,41,41,41,41,41,41,41,41,41,41,41,41,41,41,41,
41,41,41,41,41,41,41,41,41,41,41,41,41,41,41,41,41,41,41,41,41,41,41,41,
41,41,41,41,41,41,41,41,41,41,41,41,41,41,41,41,41,41,41,41,41,41,41,41,
41,41,41,41,41,41,41,41,41,41,41,41,41,41,41,41,41,41,41,41,41,41,41,41,
41,41,41,41,41,41,41,41,41,41,41,41,41,41,41,41,41,41,41,41,41,41,41,41,
41,41,41,41,41,41,41,41,41,41,41,41,41,41,41,41,41,41,41,41,41,41,41,41,
41,41,41,41,41,41,41,41,41,41,41,41,41,41,41,41,41,41,41,41,41,41,41,41,
41,41,41,41,41,41,41,41,41,41,41,41,41,41,41,41,41,41,41,41,41,41,41,41,
41,41,41,41,41,41,41,41,41,41,41,41,41,41,41,41,41,41,41,41,41,41,41,41,
41,41,41,41,41,41,41,41,41,41,41,41,41,41,41,41,41,41,41,41,41,41,41,41,
41,41,41,41,41,41,41,41,41,41,41,41,41,41,41,41,41,41,41,41,41,41,41,41,
41,41,41,41,41,41,41,41,41,41,41,41,41,41,41,41,41,41,41,41,41,41,41,41,
41,41,41,41,41,41,41,41,41,41,41,41,41,41,41,41,41,41,41,41,41,41,41,41,
41,41,41,41,41,41,41,41,41,41,41,41,41,41,41,41,41,41,41,41,41,41,41,41,
41,41,41,41,41,41,41,41,41,41,41,41,41,41,41,41,41,41,41,41,41,41,41,41,
41,41,41,41,41,41,41,41,41,41,41,41,41,41,41,41,41,41,41,41,41,41,41,41,
41,41,41,41,41,41,41,41,41,41,41,41,41,41,41,41,41,41,41,41,41,41,41,41,
41,41,41,41,41,41,41,41,41,41,41,41,41,41,41,41,41,41,41,41,41,41,41,41,
41,41,41,41,41,41,41,41,41,41,41,41,41,41,41,41,41,41,41,41,41,41,41,41,
41,41,41,41,41,41,41,41,41,41,41,41,41,41,41,41,41,41,41,41,41,41,41,41
</data>
 </layer>
 <layer id="2" name="layer2" width="24" height="24">
  <data encoding="csv">
152,152,152,152,152,152,152,152,152,152,152,152,152,152,152,152,152,152,152,152,152,152,152,152,
152,66,67,67,67,67,67,67,67,67,67,67,67,67,67,67,67,67,67,67,67,67,68,152,
152,86,0,4,0,0,1,4,0,4,0,0,0,0,0,0,126,127,128,0,1,1,88,152,
152,86,0,0,0,1,2,0,0,0,4,0,0,0,0,0,146,147,148,0,2,2,88,152,
152,86,0,5,0,2,21,4,24,0,24,5,0,0,0,0,146,147,148,0,21,21,88,152,
152,86,0,0,0,21,0,24,23,0,3,0,0,0,0,0,146,147,148,0,21,0,88,152,
152,86,1,0,0,0,0,0,0,126,127,127,127,127,127,127,150,147,148,0,0,23,88,152,
152,86,21,0,5,0,1,0,0,146,147,147,147,147,147,147,147,147,148,0,0,0,88,152,
152,86,1,4,1,23,21,4,0,146,147,129,167,167,167,167,167,167,85,4,1,0,88,152,
152,86,2,0,2,1,0,0,0,146,147,148,0,4,0,0,0,0,0,0,2,23,88,152,
152,86,21,4,21,2,1,0,0,146,147,148,4,0,0,5,0,0,0,1,21,0,88,152,
152,86,0,0,23,21,2,0,0,146,147,148,0,0,1,0,0,0,0,2,0,0,88,152,
152,86,23,1,0,0,21,1,0,146,147,148,0,1,2,0,0,5,0,21,0,0,88,152,
152,86,0,21,5,0,4,2,1,146,147,148,0,2,21,1,23,0,0,0,0,0,88,152,
152,86,0,1,23,0,0,21,21,146,147,148,0,21,4,1,1,0,5,0,0,0,88,152,
152,86,5,2,0,126,127,127,127,150,147,148,0,0,24,2,2,1,0,0,5,0,88,152,
152,86,0,21,0,146,147,147,147,147,147,148,0,0,4,21,21,2,0,0,0,0,88,152,
152,86,1,1,4,146,147,129,167,167,167,85,0,0,0,24,2,21,23,0,24,0,88,152,
152,86,21,2,0,146,147,148,0,0,0,0,4,0,0,0,21,24,2,0,0,0,88,152,
152,86,0,21,0,146,147,148,0,0,23,4,0,0,0,23,0,0,21,0,0,0,88,152,
152,86,0,0,0,146,147,148,0,0,0,0,0,0,0,0,0,0,0,0,0,0,88,152,
152,86,0,0,0,166,167,168,0,5,0,0,0,0,0,0,0,0,0,0,0,0,88,152,
152,106,107,107,107,107,107,107,107,107,107,107,107,107,107,107,107,107,107,107,107,107,108,152,
152,152,152,152,152,152,152,152,152,152,152,152,152,152,152,152,152,152,152,152,152,152,152,152
</data>
 </layer>
</map>
